remix/Device/signal-wifi-error-line.svg

<svg viewBox="0 0 24 24" fill="currentColor" xmlns="http://www.w3.org/2000/svg"><path d="M12.0005 3C16.2849 3 20.2196 4.49683 23.3104 6.99607L22.0539 8.55224C19.3066 6.33059 15.809 5 12.0005 5C8.91158 5 6.02706 5.87535 3.58152 7.39152L12.0005 17.8169L17.9999 10.388V13.571L12.0005 21L0.689941 6.99671C3.78078 4.49709 7.71583 3 12.0005 3ZM22.0005 19V21H20.0005V19H22.0005ZM22.0005 10V17H20.0005V10H22.0005Z"/></svg>

<svg viewBox="0 0 24 24" xmlns="http://www.w3.org/2000/svg"><path fill="none" d="M0 0h24v24H0Z"/><path d="M12 3c4.28 0 8.22 1.49 11.31 3.99l-1.26 1.556c-2.747-2.23-6.25-3.56-10.06-3.56 -3.09 0-5.98.875-8.419 2.39l8.419 10.42 6-7.429v3.183l-6 7.42L.68 6.96C3.77 4.46 7.7 2.97 11.99 2.97Zm10 16v2h-2v-2h2Zm0-9v7h-2v-7h2Z"/></svg>
